X: 107204
Q: "Reel."
M: C
L: 1/8
K: Am
uG |\
EA A/A/A c2ce | dcBA GABG |\
g |\
agea geae | gedg BGdB |
agea geae | gegB A/A/A (Ag) |\
agea geae | gedg BGdB |\
cAdB ecae | gegB A2-A |]


